!!!SOCIAL_FUNCTION:	songs with treatment of the sick
!!!PDT:	1956
!!!OTL: No_207_Song_for_the_Dying.krn
!!!LANG: Non-Tone
!!!LING_GROUP: Muskogean
!!!REG: Florida
**kern
*staff1
=1-
*clefG2
*k[f#c#g#d#]
*M3/4
2r
4e/
=2
[2g#/
8g#/L]
16a/L
16g#/JJ
=3||
*M2/4
8g#/L
8f#/J
8e/L
16e/Jk
16r
=4
4r
4e/
=5
8f#/
8r
4r
=6||
2r
=7!|:
8e/L
8a/J
8a/L
8g#/J
=8
8a/L
8a/J
8g#/
8r
=9
8e/L
8a/J
8a/L
8g#/J
=10
8a/L
8e/J
4e/
=11
8a/L
8e/J
4e/
=12
8a/L
8e/J
4e/
=13
2r
=14||
*M3/4
8.e/L
16e/Jk
8.e/L
16B/Jk
8.e/L
16B/Jk
=15||
*M4/4
8.e/L
16e/K
8e/J
8r
16e/LL
16f#/J
8B/J
4r
=16||
*M5/8
8.e/L
16B/K
8.e/
16e/K
8e/J
==:|!
*-
